!!!COM: Palestrina, Giovanni Perluigi da
!!!OPR: Missa Confitebor tibi
!!!OMD: Credo
!!!OTL: Crucifixus
**kern	**kern	**kern	**kern
*Ibass	*Itenor	*Icalto	*Icant
!Bassus	!Tenor	!Altus	!Cantus
*clefF4	*clefGv2	*clefG2	*clefG2
*k[b-]	*k[b-]	*k[b-]	*k[b-]
*G:dor	*G:dor	*G:dor	*G:dor
*M4/2	*M4/2	*M4/2	*M4/2
=78	=78	=78	=78
1r	0d	0r	0r
[1G	.	.	.
=79	=79	=79	=79
1G]	1e	0r	0r
1A	1f	.	.
=80	=80	=80	=80
1B-	1d	0r	0r
2G	[1e-	.	.
[2c	.	.	.
=81	=81	=81	=81
2c]	2e-]	0r	0r
2B-	2d	.	.
2A	2c	.	.
[2G	2B-	.	.
=82	=82	=82	=82
2G]	1A	0r	1r
2F	.	.	.
2.B-	2.G	.	[1dd
4A	4A	.	.
=83	=83	=83	=83
2.G	4B-	0g	1dd]
.	4c	.	.
.	2.d	.	.
4F	.	.	.
1E	.	.	1ee
.	4c#	.	.
.	4c#	.	.
.	4B	.	.
=84	=84	=84	=84
1D	1d	1a	1ff
1r	1G	1b-	1dd
=85	=85	=85	=85
0r	1.c	2g	1.ee-
.	.	1cc	.
.	2d	2b-	2dd
=86	=86	=86	=86
0r	2f	2a	2cc
.	2g	2.g	2b-
.	1d	.	1a
.	.	4f#	.
.	.	2f#	.
=87	=87	=87	=87
2r	1G	2.g	2.b-
2G	.	.	.
.	.	8f	4cc
.	.	8e	.
2.B-	2r	4d	1dd
.	.	4e	.
.	2d	4f	.
4B-	.	4g	.
=88	=88	=88	=88
2A	2.f	0a	0cc
2F	.	.	.
.	4f	.	.
4A	2e	.	.
4G	.	.	.
4A	2c	.	.
4B-	.	.	.
=89	=89	=89	=89
2.c	4e	1g	2r
.	4d	.	.
.	4e	.	2g
8B-	4f	.	.
8A	.	.	.
1G	1g	1r	2.b-
.	.	.	4b-
=90	=90	=90	=90
0D	2.f	2r	2a
.	.	2d	2f
.	4e	.	.
.	1d	2.f	4a
.	.	.	4g
.	.	.	4a
.	.	4f	4b-
=91	=91	=91	=91
2r	1A	2e	1cc
2A	.	2c	.
2.c	1r	4e	2g
.	.	4d	.
.	.	4e	2g
4c	.	4f	.
=92	=92	=92	=92
2B-	1r	1g	4b-
.	.	.	4a
2G	.	.	4b-
.	.	.	4cc
4B-	2r	1d	1dd
4A	.	.	.
4B-	[2f	.	.
4c	.	.	.
=93	=93	=93	=93
2.d	2f]	2r	1a
.	2d	1f	.
4c	.	.	.
[1B-	2.f	.	2r
.	.	2d	[2ff
.	4e	.	.
=94	=94	=94	=94
1B-]	4d	2f	2ff]
.	4c	.	.
.	1d	2g	2dd
1A	.	1a	2ff
.	2c	.	2ee
=95	=95	=95	=95
1r	2B-	1b-	2dd
.	2B-	.	2dd
2r	1F	2a	4cc
.	.	.	4b-
[2F	.	[2cc	4a
.	.	.	4g
=96	=96	=96	=96
2F]	1.f	2cc]	2a
2D	.	2b-	2dd
2F	.	2a	2cc
2G	2d	2g	2b-
=97	=97	=97	=97
2A	2f	2f	2a
2B-	2g	4e	1dd
.	.	4d	.
1A	1a	2e	.
.	.	2e	2cc#
=98	=98	=98	=98
2.B-	2f	1d	0dd
.	1g	.	.
4c	.	.	.
[1d	.	2r	.
.	4f#	2a	.
.	4e	.	.
=99	=99	=99	=99
1d]	1f#	2a	2r
.	.	2a	2dd
1G	1g	1b-	2dd
.	.	.	2dd
=100	=100	=100	=100
0r	1d	1a	1ff
.	1r	2.cc	2ee
.	.	.	[2gg
.	.	4cc	.
=101	=101	=101	=101
1r	0r	2g	4gg]
.	.	.	4gg
.	.	2.b-	2dd
2r	.	.	2ff
.	.	4a	.
2A	.	4cc	4ee
.	.	4b-	4dd
=102	=102	=102	=102
2A	1r	4a	4cc
.	.	4g	4b-
2A	.	4f	4a
.	.	4e	4g
1B-	2r	4d	2f
.	.	4c	.
.	2d	[2d	2g
=103	=103	=103	=103
1A	2e	4d]	0a
.	.	8c#	.
.	.	8B	.
.	2e	2c#	.
2.d	1f	2d	.
.	.	[2a	.
4d	.	.	.
=104	=104	=104	=104
2c	2e	4a]	0r
.	.	4g	.
4G	2.g	1b-	.
4A	.	.	.
4B-	.	.	.
4c	4g	.	.
[2d	2f	2a	.
=105	=105	=105	=105
4d]	4d	1a	2r
4c	4e	.	.
4A	4f	.	2a
4B-	4d	.	.
2c	2e	1r	2a
2d	2f	.	2a
=106	=106	=106	=106
1G	1g	2r	1b-
.	.	2d	.
[1D	2.f	2d	1a
.	.	2d	.
.	4e	.	.
=107	=107	=107	=107
1D]	2d	1f	2.dd
.	2A	.	.
.	.	.	4dd
1r	4A	1e	2cc
.	4A	.	.
.	2c	.	4g
.	.	.	4a
=108	=108	=108	=108
1r	1G	2.g	4b-
.	.	.	4cc
.	.	.	2.dd
.	.	4g	.
2.d	1r	4f	.
.	.	4g	4ee
.	.	4a	4ff
4d	.	4b-	4dd
=109	=109	=109	=109
2c	2r	2cc	2ee
4G	2.g	1b-	4dd
4A	.	.	4cc
4B-	.	.	4dd
4c	4g	.	4ee
[2d	2f	4a	[2ff
.	.	4g	.
=110	=110	=110	=110
4d]	4d	2.f	4ff]
4c	4e	.	4ee
2B-	4f	.	1dd
.	4d	4g	.
1A	1e	1a	.
.	.	.	2cc#
=111	=111	=111	=111
0D	1d	2f	0dd
.	.	1a	.
.	2r	.	.
.	2d	[2b-	.
=112	=112	=112	=112
0r	1e-	2b-]	2r
.	.	2g	2b-
.	2c	2a	2cc
.	2d	[2b-	2f
=113	=113	=113	=113
1r	1e-	4b-]	2.g
.	.	4a	.
.	.	1g	.
.	.	.	4a
1D	1d	.	2b-
.	.	2f#	[2a
=114	=114	=114	=114
1E-	1G	2g	4a]
.	.	.	4g
.	.	2b-	1g
2C	2r	1a	.
2D	[2d	.	2f#
=115	=115	=115	=115
1E-	2d]	2r	1g
.	2c	1g	.
2D	2.d	.	2r
2D	.	2f#	2a
.	4c	.	.
=116	=116	=116	=116
1G	2B-	2.g	1b-
.	2e-	.	.
.	.	4a	.
2G	[1d	2b-	2g
2F#	.	2a	2a
=117	=117	=117	=117
0G	0d]	0g	0b-
=118	=118	=118	=118
0D	0d	0f#	0a
*-	*-	*-	*-
!!!CDT: 1525/^1526/-1594/2/2
!!!OCY: Italia
!!!AGN: Mass (Parody)
!!!AST: renaissance, vocal
!!!ASW: Motet 1572 (Palestrina)
!!!PWK: Masses, Book 8vce
!!!RNB: Cadence finals: D,Bb
!!!YOR: Le Opere Complete, v. 30, p. 163
!!!YOO: Rome, Italy: Fratelli Scalera
!!!END: 1992//
!!!EED: John Miller
!!!YEC: Copyright 2000, John Miller
!!!YEN: United States of America
!!!YEM: Rights to all derivative electronic formats reserved.
!!!YEM: Refer to licensing agreement for further details.
!!!YEM: This file must be accompanied by the licensing agreement.
!!!YEM: A copy of the licensing agreement may be found at http://www.music-cog.ohio-state.edu/HumdrumDatabases/Palestrina/license.txt
!!!EMD: converted to Humdrum by Bret Aarden
